src/lib/packages/icons/src/assets/line/warehouse.svg

<svg width="24" height="24" viewBox="0 0 24 24" fill="none" xmlns="http://www.w3.org/2000/svg">
<path d="M20.5909 6.619L13.3361 2.59605C12.4981 2.13205 11.501 2.13205 10.665 2.59605L3.40906 6.619C2.69406 7.015 2.25 7.76904 2.25 8.58604V19.5001C2.25 20.7411 3.26 21.7501 4.5 21.7501H19.5C20.74 21.7501 21.75 20.7411 21.75 19.5001V8.58604C21.75 7.76904 21.3059 7.015 20.5909 6.619ZM7.25 15.7501H16.75V17.2501H7.25V15.7501ZM16.75 14.2501H7.25V13.5001C7.25 12.9111 7.411 12.7501 8 12.7501H16C16.589 12.7501 16.75 12.9111 16.75 13.5001V14.2501ZM7.25 18.7501H16.75V20.2501H7.25V18.7501ZM20.25 19.5001C20.25 19.9141 19.913 20.2501 19.5 20.2501H18.25V13.5001C18.25 12.0911 17.409 11.2501 16 11.2501H8C6.591 11.2501 5.75 12.0911 5.75 13.5001V20.2501H4.5C4.087 20.2501 3.75 19.9141 3.75 19.5001V8.58604C3.75 8.31404 3.89699 8.06303 4.13599 7.93003L11.3929 3.90708C11.5819 3.80208 11.791 3.74912 12 3.74912C12.209 3.74912 12.418 3.80208 12.608 3.90708L19.864 7.93003C20.102 8.06203 20.25 8.31304 20.25 8.58604V19.5001ZM14.25 8.0001C14.25 8.4141 13.914 8.7501 13.5 8.7501H10.5C10.086 8.7501 9.75 8.4141 9.75 8.0001C9.75 7.5861 10.086 7.2501 10.5 7.2501H13.5C13.914 7.2501 14.25 7.5861 14.25 8.0001Z" fill="currentColor"/>
</svg>

<svg xmlns="http://www.w3.org/2000/svg" width="24" height="24" fill="none"><path fill="currentColor" d="m20.59 6.619-7.254-4.023a2.737 2.737 0 0 0-2.671 0L3.409 6.619A2.25 2.25 0 0 0 2.25 8.586V19.5c0 1.241 1.01 2.25 2.25 2.25h15c1.24 0 2.25-1.009 2.25-2.25V8.586a2.25 2.25 0 0 0-1.16-1.967ZM7.25 15.75h9.5v1.5h-9.5v-1.5Zm9.5-1.5h-9.5v-.75c0-.589.161-.75.75-.75h8c.589 0 .75.161.75.75v.75Zm-9.5 4.5h9.5v1.5h-9.5v-1.5Zm13 .75a.75.75 0 0 1-.75.75h-1.25V13.5c0-1.409-.841-2.25-2.25-2.25H8c-1.409 0-2.25.841-2.25 2.25v6.75H4.5a.75.75 0 0 1-.75-.75V8.586a.75.75 0 0 1 .386-.656l7.257-4.023a1.25 1.25 0 0 1 1.215 0l7.256 4.023a.75.75 0 0 1 .386.656V19.5Zm-6-11.5a.75.75 0 0 1-.75.75h-3a.75.75 0 0 1 0-1.5h3a.75.75 0 0 1 .75.75Z"/></svg>
